X: 770
T: Get Up Early
C:F. O'Neill.
B:O'Neill's Music of Ireland
N:O'Neill's - 770
Z:Transcribed by Stephen Foy (shf@access.digex.net)
Z:abc 1.6
M:6/8
R:Jig
K:Gm
D|D2 G {A}G^FG|A2 d d2 =e|f2 d cBA|{A}B2 G AFD|D2 G {A}G^FG|\
A2 d d2 =e|
|f2 d {d}cA^F|G3 G2:|g|g2 d g2 d|g2 b a2 g|f2 d f2 d|f2 d {d}cAF|
|[1 g2 d g2 d|g2 b a2 g|{e}f2 d cA^F|G3 G2:|[2 g2 d g2 a|\
b2 g a2 g|f2 d {d}cA^F|G3 G2|]


